X: 49
T: Missa Mi mi / Gloria
N: Derived from Ock1010b-Missa_Mi_mi-Gloria.krn
C: Johannes Ockeghem
%%abc-version 2.0
%%abcx-abcm2ps-target-version 5.9.1 (29 Sep 2008)
%%abc-creator hum2abc beta
%%abcx-conversion-date 2019/02/17 07:26:15
%%abc-edited-by Jesse Rodin
%%abc-edited-by Will Watson 20/1/2012
%%abcx-initial-encoding-date 2012/01/20/
%%humdrum-veritas 2333410755
%%humdrum-veritas-data 1996701059
%%linebreak <none>
%%barnumbers 0
L: 1/4
M: 3/1
Q: 1/2=120
%%staves [1 2 3 4]
V: 1 clef=treble
V: 2 clef=treble-8
V: 3 clef=treble-8
V: 4 clef=bass
K: C
[V:1] E8G4 | 
[V:2] e8e4 | 
[V:3] B12- | 
[V:4] E,12- | 
[V:1] G4A6F2 | 
[V:2] e4e8 | 
[V:3] B4c8 | 
[V:4] E,4A,,8 | 
[V:1] G3AB2c4BA | 
[V:2] e8z4 | 
[V:3] B4G4A4 | 
[V:4] E,8F,4 | 
[V:1] G2A2B2A4^G2 | 
[V:2] e8e4 | 
[V:3] B2E2G2A2B4 | 
[V:4] E,4z4E,4 | 
[V:1] A8A4 | 
[V:2] c4d8- | 
[V:3] A8F4 | 
[V:4] F,6D,2D,4 | 
[V:1] A4B6A2 | 
[V:2] d12 | 
[V:3] F4G6E2 | 
[V:4] D,4G,,8 | 
[V:1] A4G2B3AGF | 
[V:2] d4c2B2d4 | 
[V:3] F4G4z4 | 
[V:4] D,4E,4D,4 | 
[V:1] E4z2E4C2 | 
[V:2] z4B4c2A2 | 
[V:3] G8A4 | 
[V:4] C,2E,3D,C,B,,A,,4 | 
[V:1] D2E4F2G3F/G/ | 
[V:2] G4E2D2z2G2 | 
[V:3] B2c2A4G2c2- | 
[V:4] z2C,4D,2E,4 | 
[V:1] A2GF2EE4D2 | 
[V:2] E2D2C2c2BA2G | 
[V:3] c2B2A2G2F4 | 
[V:4] A,,2B,,2C,4D,4 | 
[V:1] E4z4E4 | 
[V:2] B4z4B4 | 
[V:3] E4C4z4 | 
[V:4] z2G,4E,4C,2 | 
[V:1] E6E2E4 | 
[V:2] c6c2c4 | 
[V:3] G4G2G2G4 | 
[V:4] C,12 | 
[V:1] E4F6E2 | 
[V:2] c4c8 | 
[V:3] G4A8 | 
[V:4] C,4F,8 | 
[V:1] E4G3FD4 | 
[V:2] c4z4z4 | 
[V:3] G3AB2c4B2 | 
[V:4] C,4z4G,4 | 
[V:1] C8z4 | 
[V:2] z2F3GA2G2B2 | 
[V:3] c4z4G4 | 
[V:4] A,3B,C2C4B,2 | 
[V:1] C8D4 | 
[V:2] A2c3BG4F2 | 
[V:3] A3Bc2c4B2 | 
[V:4] C2F,4E,2D,4 | 
[V:1] E4D2F2G2_B2- | 
[V:2] G6F3DE2 | 
[V:3] c4B2A2G4 | 
[V:4] C,4z4z4 | 
[V:1] BAAFG2F4E2 | 
[V:2] F2D2C2c4B2 | 
[V:3] F4E2F2G4 | 
[V:4] z12 | 
[V:1] F4E2D3CD2 | 
[V:2] A4z4B4 | 
[V:3] F4G8 | 
[V:4] D,4C,2D,2B,,4 | 
[V:1] C2A,3B,C2B,4 | 
[V:2] c8d3e | 
[V:3] A8G4 | 
[V:4] A,,4z4z4 | 
[V:1] A,4z4G4 | 
[V:2] f2e3dd4^c2 | 
[V:3] A4z4z4 | 
[V:4] F,3G,A,3G,/F,/E,4 | 
[V:1] F4G2A3GF2 | 
[V:2] d6e2f2d2 | 
[V:3] A4_B2A2F4 | 
[V:4] D,4z4D,4 | 
[V:1] E2G3FF3DDB, | 
[V:2] e4z2d2d4 | 
[V:3] G3FD2A2B4 | 
[V:4] C,4D,8 | 
[V:1] C2E4D4^C2 | 
[V:2] e2c3AB2A4 | 
[V:3] A3GE2F2E4 | 
[V:4] A,,4C,2D,2A,,4 | 
[V:1] D8z4 | 
[V:2] A4d8- | 
[V:3] D6F6 | 
[V:4] z4z4A,4 | 
[V:1] G6G2G4 | 
[V:2] d8d4- | 
[V:3] G4_B8 | 
[V:4] _B,4G,8 | 
[V:1] A6A2B4 | 
[V:2] d2c2d8 | 
[V:3] A6A2F4 | 
[V:4] F,4D,8 | 
[V:1] c4B2A4GF | 
[V:2] G4z2d4B2 | 
[V:3] E4F2D2F3G | 
[V:4] C,4D,8 | 
[V:1] E4E2E4E2 | 
[V:2] c3AA4e4 | 
[V:3] A4c4c4 | 
[V:4] A,,4z4z4 | 
[V:1] A2A2A4A4 | 
[V:2] f12 | 
[V:3] c12 | 
[V:4] F,8F,4 | 
[V:1] F2E2G3FD4 | 
[V:2] z12 | 
[V:3] z2c8B2 | 
[V:4] D,2C,4F,4G,2 | 
[V:1] C4z4z4 | 
[V:2] z2F2G2A3Fc2 | 
[V:3] c4z4A4- | 
[V:4] A,4B,2A,2C4 | 
[V:1] z12 | 
[V:2] d2f4e2f3e | 
[V:3] A4B4c4 | 
[V:4] F,4G,4F,4 | 
[V:1] z12 | 
[V:2] dcd3cA2c2B2 | 
[V:3] B4A4G2F2- | 
[V:4] z4F,4E,2D,2- | 
[V:1] z12 | 
[V:2] A4F2E2A2B2 | 
[V:3] F2EDC3DE2F2 | 
[V:4] D,2C,B,,A,,3B,,C,2D,2 | 
[V:1] z12 | 
[V:2] c3BGABA2^G^G^F | 
[V:3] EA2GE2F2D4 | 
[V:4] A,,2C,4D,2B,,4 | 
[V:1] z4z4A4 | 
[V:2] A8A3G | 
[V:3] E12 | 
[V:4] A,,12- | 
[V:1] A8A4 | 
[V:2] E8e4 | 
[V:3] z4z4c4 | 
[V:4] A,,8z4 | 
[V:1] A4c6BA | 
[V:2] f6edc3d | 
[V:3] c8c4 | 
[V:4] F,12 | 
[V:1] G4A6GF | 
[V:2] e4A4F4 | 
[V:3] z4F4A2B2 | 
[V:4] E,4F,4D,4 | 
[V:1] E2C2D2C4E2- | 
[V:2] G2A2B2G3FE2 | 
[V:3] c4z4c4 | 
[V:4] C,4B,,2C,2A,,4 | 
[V:1] E2D2E2DD2B,A,2 | 
[V:2] G4C2G2B2c2 | 
[V:3] B2G8F2 | 
[V:4] G,,4z4z4 | 
[V:1] G,4z2G3FG2 | 
[V:2] B2d4G2d4 | 
[V:3] G3A_B8 | 
[V:4] z12 | 
[V:1] ABc2BGBA2G2^F | 
[V:2] c2A2G3F2ED2 | 
[V:3] A3FGED2FGA2 | 
[V:4] z12 | 
[V:1] G4z4G4 | 
[V:2] d8e4 | 
[V:3] G12 | 
[V:4] z4z4C,4 | 
[V:1] A6GAF3E | 
[V:2] f6edc2d2 | 
[V:3] z4z4A3B | 
[V:4] F,12 | 
[V:1] E8z4 | 
[V:2] A12 | 
[V:3] c8c4 | 
[V:4] z4z2C,2F,3G, | 
[V:1] z4z4A4 | 
[V:2] z4z2A2c2d2 | 
[V:3] c6BcA3G | 
[V:4] A,6G,A,F,3E, | 
[V:1] B4c6BA | 
[V:2] e6dec3B | 
[V:3] G4A8 | 
[V:4] E,4A,,4z4 | 
[V:1] G3AB2ABc2A2 | 
[V:2] B4e8 | 
[V:3] E4G4A4 | 
[V:4] E,8A,,4- | 
[V:1] A6^G4^F2 | 
[V:2] e4d2d4cd | 
[V:3] c4B8 | 
[V:4] A,,4z4z4 | 
[V:1] A4F2D2E4 | 
[V:2] e4d2B2c4 | 
[V:3] A4z4A4 | 
[V:4] z2C,2D,4A,,4 | 
[V:1] F2D3EF3GA2 | 
[V:2] d4B2A2d4 | 
[V:3] F4G2F2A4 | 
[V:4] D,4z2D,3E,F,2 | 
[V:1] B2c3BAG^F3E | 
[V:2] d2e2c2d4d2 | 
[V:3] F2G2A2B2A4 | 
[V:4] D,2C,2A,,2G,,2D,4 | 
[V:1] G4E2F2ECB,2 | 
[V:2] B2c3AA2z2G2 | 
[V:3] G4A2F2G4 | 
[V:4] z2C,4D,2E,4 | 
[V:1] A,2C2D2E3FG2- | 
[V:2] E4D2C4D2 | 
[V:3] A4B2c2A2B2 | 
[V:4] A,,4z2A,,4G,,2- | 
[V:1] GFF3EE3CD2 | 
[V:2] d4B2c2AA2G | 
[V:3] G2A2E2G2F4 | 
[V:4] G,,2D,2E,2C,2D,4 | 
[V:1] CA,G,2A,B,3/C/DCA,2^G, | 
[V:2] A2D2z2B,2C2DB, | 
[V:3] E2zDEF2G3/F/EFD | 
[V:4] A,,2B,,2C,D,2G,,A,,C,B,,2 | 
[V:1] A,2zC2DEFG3E | 
[V:2] C2c3Ac2B4 | 
[V:3] E4A4G2E2- | 
[V:4] A,,4z4z4 | 
[V:1] G2F4E4D2 | 
[V:2] c2d2B2c2A4 | 
[V:3] E2D2G2A2F4 | 
[V:4] z12 | 
[V:1] E12- | 
[V:2] B4G4A4- | 
[V:3] E12- | 
[V:4] E,6C,4A,,2 | 
[V:1] E12 ||  
[V:2] A2B2c4B4 ||  
[V:3] E12 ||  
[V:4] A,,2G,,2A,,4E,,4 ||  
[V:1] [M:2/1]A,8 | 
[V:2] [M:2/1]D8 | 
[V:3] [M:2/1]F8 | 
[V:4] [M:2/1]z8 | 
[V:1] C4C4 | 
[V:2] G4G4 | 
[V:3] E4E4 | 
[V:4] z8 | 
[V:1] D4D4 | 
[V:2] A4A4 | 
[V:3] D4D4 | 
[V:4] z8 | 
[V:1] D6C2 | 
[V:2] _B8 | 
[V:3] G6A2 | 
[V:4] z8 | 
[V:1] D4E4 | 
[V:2] G8 | 
[V:3] _B4A2G2 | 
[V:4] z8 | 
[V:1] F4E2D2 | 
[V:2] D4C4 | 
[V:3] F4G4 | 
[V:4] z8 | 
[V:1] C4E4 | 
[V:2] c8 | 
[V:3] A4A4 | 
[V:4] z8 | 
[V:1] A4A4- | 
[V:2] A4F2G2 | 
[V:3] A4c4- | 
[V:4] F,6C,2 | 
[V:1] A4G4 | 
[V:2] A4E4 | 
[V:3] c4B4 | 
[V:4] F,4G,4 | 
[V:1] F8 | 
[V:2] F8 | 
[V:3] A6G2 | 
[V:4] D,8 | 
[V:1] E4E4 | 
[V:2] G8 | 
[V:3] c4c4 | 
[V:4] C,8 | 
[V:1] A4A4 | 
[V:2] A8 | 
[V:3] c4c4 | 
[V:4] z4F,4 | 
[V:1] A4A4 | 
[V:2] z4e4 | 
[V:3] c4c4 | 
[V:4] A,4A,4 | 
[V:1] G6E2 | 
[V:2] e4e4 | 
[V:3] B8 | 
[V:4] E,4E,4- | 
[V:1] G6A2 | 
[V:2] c4d4- | 
[V:3] E4D4 | 
[V:4] E,2C,2B,,4- | 
[V:1] B4E4- | 
[V:2] d4c2A2 | 
[V:3] G4A4 | 
[V:4] B,,4A,,4 | 
[V:1] E2D2G4 | 
[V:2] G8 | 
[V:3] B8 | 
[V:4] E,8 | 
[V:1] F4E4- | 
[V:2] z8 | 
[V:3] A4c4- | 
[V:4] A,,8 | 
[V:1] E2D2D4 | 
[V:2] G8 | 
[V:3] c2B2B4 | 
[V:4] z8 | 
[V:1] C2A,2B,4 | 
[V:2] A4E4 | 
[V:3] A2F2G4 | 
[V:4] z8 | 
[V:1] A,8 | 
[V:2] z4F4- | 
[V:3] A8 | 
[V:4] z8 | 
[V:1] z8 | 
[V:2] F2D2D2_B,2 | 
[V:3] F8 | 
[V:4] D,8 | 
[V:1] A,8- | 
[V:2] C8- | 
[V:3] E8- | 
[V:4] A,,8- | 
[V:1] A,4A,4 | 
[V:2] C4C4 | 
[V:3] E4E4 | 
[V:4] A,,4A,,4 | 
[V:1] A,8 | 
[V:2] C8 | 
[V:3] E4F4 | 
[V:4] A,,8 | 
[V:1] _B,8- | 
[V:2] D8- | 
[V:3] G8- | 
[V:4] G,,8- | 
[V:1] B,4_B,4 | 
[V:2] D4D4 | 
[V:3] G4G4 | 
[V:4] G,,4G,,4 | 
[V:1] _B,4B,4 | 
[V:2] D4D4 | 
[V:3] G4G4 | 
[V:4] G,,4G,,4 | 
[V:1] _B,8 | 
[V:2] D8 | 
[V:3] G8 | 
[V:4] G,,8 | 
[V:1] A,4D4- | 
[V:2] D8 | 
[V:3] F8 | 
[V:4] D,8 | 
[V:1] D4C4 | 
[V:2] z8 | 
[V:3] D4E4 | 
[V:4] _B,,4A,,4 | 
[V:1] _B,8 | 
[V:2] D8 | 
[V:3] G6E2 | 
[V:4] G,,8 | 
[V:1] A,8 | 
[V:2] C8 | 
[V:3] E8 | 
[V:4] A,,8 | 
[V:1] z8 | 
[V:2] z8 | 
[V:3] z2E2D2F2 | 
[V:4] C,4D,4 | 
[V:1] z8 | 
[V:2] z4F4 | 
[V:3] G2A4B2 | 
[V:4] E,2F,4D,2 | 
[V:1] z4A4- | 
[V:2] G4A4 | 
[V:3] c4F4 | 
[V:4] C,4C4 | 
[V:1] A4A4 | 
[V:2] F4f4- | 
[V:3] c8 | 
[V:4] z4F,4- | 
[V:1] A4c4- | 
[V:2] f2edc4 | 
[V:3] c4z2F2- | 
[V:4] F,4A,4- | 
[V:1] c2A2A4 | 
[V:2] z4d4 | 
[V:3] F2F2A2F2 | 
[V:4] A,2D,2D,4 | 
[V:1] G2A2B2AB | 
[V:2] B2A2d4 | 
[V:3] E2F2G4 | 
[V:4] E,2D,2B,,4 | 
[V:1] c6B2 | 
[V:2] c4A2F2 | 
[V:3] A2B2c4 | 
[V:4] A,,4z4 | 
[V:1] A4G4 | 
[V:2] c8 | 
[V:3] F4z2C2 | 
[V:4] z8 | 
[V:1] F2F4E2 | 
[V:2] A2B2c4 | 
[V:3] F2G2A4 | 
[V:4] z8 | 
[V:1] D4C4- | 
[V:2] G4z2G2 | 
[V:3] B4A2c2- | 
[V:4] z4z2C,2 | 
[V:1] C4z2C2 | 
[V:2] A2B2c4 | 
[V:3] cBG2F4 | 
[V:4] F,2G,2A,4 | 
[V:1] F2G2A2GA | 
[V:2] d4c4 | 
[V:3] z4z2A2 | 
[V:4] _B,3A,F,4 | 
[V:1] _B2A4F2 | 
[V:2] z4d4 | 
[V:3] G2A4B2 | 
[V:4] G,2F,2D,4 | 
[V:1] E8 | 
[V:2] G2c3BA2 | 
[V:3] c8- | 
[V:4] C,6D,2 | 
[V:1] z4A4 | 
[V:2] G4F4 | 
[V:3] c8 | 
[V:4] E,4F,4 | 
[V:1] A4A4- | 
[V:2] f4z4 | 
[V:3] z4c4 | 
[V:4] D,4C,2F,2- | 
[V:1] A4A4 | 
[V:2] f4e4- | 
[V:3] c6A2 | 
[V:4] F,2G,2A,4 | 
[V:1] G4A4 | 
[V:2] e2d2c4 | 
[V:3] B4A4 | 
[V:4] E,4F,4 | 
[V:1] B8 | 
[V:2] B4e4- | 
[V:3] G8 | 
[V:4] z4E,4- | 
[V:1] E8 | 
[V:2] e2c2B4 | 
[V:3] z4B4 | 
[V:4] E,2F,2G,4 | 
[V:1] z8 | 
[V:2] z2A4G2- | 
[V:3] c4c4 | 
[V:4] A,4F,2E,2- | 
[V:1] z8 | 
[V:2] G2F2E4 | 
[V:3] B4A4 | 
[V:4] E,2D,2C,2A,,2 | 
[V:1] z4B4 | 
[V:2] D4G4 | 
[V:3] G4z4 | 
[V:4] B,,4E,4 | 
[V:1] c4c4 | 
[V:2] z4e4- | 
[V:3] A4F2E2- | 
[V:4] A,,8 | 
[V:1] B4A4 | 
[V:2] e4d4 | 
[V:3] E2G2F4 | 
[V:4] z4D,4 | 
[V:1] G8 | 
[V:2] B6c2 | 
[V:3] z4E4 | 
[V:4] E,6D,C, | 
[V:1] z8 | 
[V:2] d4D4 | 
[V:3] G4G4 | 
[V:4] B,,8 | 
[V:1] z4E4 | 
[V:2] E4A4 | 
[V:3] A4c4 | 
[V:4] A,,8 | 
[V:1] G4G4 | 
[V:2] G4z4 | 
[V:3] B8 | 
[V:4] E,8 | 
[V:1] A6GF | 
[V:2] c6d2 | 
[V:3] A2c4A2 | 
[V:4] F,8 | 
[V:1] G4A2B2- | 
[V:2] e4e4- | 
[V:3] B4A2G2 | 
[V:4] E,4z4 | 
[V:1] B2A4^G2 | 
[V:2] e2c2d4 | 
[V:3] A4B4 | 
[V:4] z8 | 
[V:1] A8 | 
[V:2] e4A4 | 
[V:3] c4F4 | 
[V:4] z4F,4 | 
[V:1] G4E4 | 
[V:2] B4c4 | 
[V:3] G4A4- | 
[V:4] E,4C,4 | 
[V:1] F8 | 
[V:2] A2d4d2 | 
[V:3] A4B4 | 
[V:4] D,8 | 
[V:1] E8 | 
[V:2] A4c4- | 
[V:3] c4A2A2- | 
[V:4] z8 | 
[V:1] z4C4 | 
[V:2] c4A4 | 
[V:3] A2F2E4 | 
[V:4] A,,8 | 
[V:1] D4E4 | 
[V:2] G4z4 | 
[V:3] D4A4- | 
[V:4] B,,4A,,4 | 
[V:1] F8 | 
[V:2] A4d4- | 
[V:3] A4D4 | 
[V:4] D,8 | 
[V:1] E8 | 
[V:2] d2B2c4 | 
[V:3] z8 | 
[V:4] G,4A,4 | 
[V:1] D4D4 | 
[V:2] d8 | 
[V:3] G8 | 
[V:4] _B,4G,4- | 
[V:1] G4G4 | 
[V:2] e8 | 
[V:3] B4c4 | 
[V:4] G,4C,4 | 
[V:1] F4F4 | 
[V:2] d8 | 
[V:3] A6GF | 
[V:4] D,8 | 
[V:1] G3AB2c2- | 
[V:2] z4d2c2 | 
[V:3] E3FG2A2- | 
[V:4] C,4z4 | 
[V:1] cBAGF2A2- | 
[V:2] A4A2c2- | 
[V:3] AGFED2C2 | 
[V:4] z8 | 
[V:1] AGG4^F2 | 
[V:2] c2B2c4 | 
[V:3] F2G2A4 | 
[V:4] z8 | 
[V:1] G4z4 | 
[V:2] d3BA2B2 | 
[V:3] G4z4 | 
[V:4] G,4F,2E,2- | 
[V:1] z8 | 
[V:2] G3AB2c2 | 
[V:3] C4D2E2- | 
[V:4] E,2D,C,B,,2A,,2 | 
[V:1] z4G4 | 
[V:2] A2A3FG2 | 
[V:3] E2F2D4 | 
[V:4] C,2D,2B,,4 | 
[V:1] F2E4DC | 
[V:2] z2c2B2G2- | 
[V:3] A4G3A | 
[V:4] A,,4z4 | 
[V:1] B,2A,2C2D2 | 
[V:2] G2A4D2 | 
[V:3] B2c2A2A2- | 
[V:4] z8 | 
[V:1] B,4A,4 | 
[V:2] E4e4 | 
[V:3] A2^G2A4 | 
[V:4] z4z2A,2- | 
[V:1] C2D2E4 | 
[V:2] A4B4 | 
[V:3] z8 | 
[V:4] A,2F,2G,2E,2- | 
[V:1] C2D4F2 | 
[V:2] z2A2d4 | 
[V:3] G2A4B2 | 
[V:4] E,2F,2D,4 | 
[V:1] E2G2F2A2- | 
[V:2] e4d4 | 
[V:3] c4A2F2 | 
[V:4] C,4D,4 | 
[V:1] AGA4G2 | 
[V:2] c3de4 | 
[V:3] E4E2G2- | 
[V:4] A,,4C,4 | 
[V:1] E2F3EDC | 
[V:2] c2d3cA2 | 
[V:3] G2F2A4 | 
[V:4] E,2D,2F,4 | 
[V:1] B,2E4D2 | 
[V:2] G2c2BA2G | 
[V:3] E2G2F4 | 
[V:4] G,2C,2D,4 | 
[V:1] E6F2 | 
[V:2] B8 | 
[V:3] E8 | 
[V:4] z2G,4E,2 | 
[V:1] G8 | 
[V:2] e8 | 
[V:3] z4E4 | 
[V:4] E,4C,4 | 
[V:1] F4A4- | 
[V:2] d8 | 
[V:3] F8 | 
[V:4] D,8 | 
[V:1] A2GFE2C2 | 
[V:2] c8 | 
[V:3] E6F2 | 
[V:4] A,,8 | 
[V:1] D4E4- | 
[V:2] B4G4 | 
[V:3] G8 | 
[V:4] G,,4E,,4 | 
[V:1] E4D4 | 
[V:2] A8 | 
[V:3] F8 | 
[V:4] z8 | 
[V:1] E8 |]  
[V:2] B8 |]  
[V:3] E8 |]  
[V:4] E,,8 |]  



